source/img/icon-shop.svg

<svg width="23" height="23" viewBox="0 0 23 23" fill="none" xmlns="http://www.w3.org/2000/svg">
<path d="M7.41035 14.8693H7.41141C7.41228 14.8693 7.41316 14.8691 7.41404 14.8691H19.6309C19.9316 14.8691 20.1961 14.6696 20.2787 14.3804L22.974 4.94685C23.0321 4.74347 22.9914 4.52483 22.8642 4.35602C22.7368 4.18721 22.5376 4.08789 22.3262 4.08789H5.85634L5.37466 1.92023C5.30605 1.61192 5.03265 1.39258 4.7168 1.39258H0.673828C0.301643 1.39258 0 1.69422 0 2.06641C0 2.43859 0.301643 2.74023 0.673828 2.74023H4.17633C4.26161 3.12435 6.48138 13.1135 6.60913 13.6882C5.89301 13.9995 5.39062 14.7135 5.39062 15.543C5.39062 16.6576 6.29749 17.5645 7.41211 17.5645H19.6309C20.003 17.5645 20.3047 17.2628 20.3047 16.8906C20.3047 16.5184 20.003 16.2168 19.6309 16.2168H7.41211C7.04063 16.2168 6.73828 15.9145 6.73828 15.543C6.73828 15.172 7.03957 14.8702 7.41035 14.8693ZM21.4328 5.43555L19.1225 13.5215H7.95258L6.1557 5.43555H21.4328Z" fill="white"/>
<path d="M6.73828 19.5859C6.73828 20.7006 7.64514 21.6074 8.75977 21.6074C9.87439 21.6074 10.7812 20.7006 10.7812 19.5859C10.7812 18.4713 9.87439 17.5645 8.75977 17.5645C7.64514 17.5645 6.73828 18.4713 6.73828 19.5859ZM8.75977 18.9121C9.13125 18.9121 9.43359 19.2145 9.43359 19.5859C9.43359 19.9574 9.13125 20.2598 8.75977 20.2598C8.38828 20.2598 8.08594 19.9574 8.08594 19.5859C8.08594 19.2145 8.38828 18.9121 8.75977 18.9121Z" fill="white"/>
<path d="M16.2617 19.5859C16.2617 20.7006 17.1686 21.6074 18.2832 21.6074C19.3978 21.6074 20.3047 20.7006 20.3047 19.5859C20.3047 18.4713 19.3978 17.5645 18.2832 17.5645C17.1686 17.5645 16.2617 18.4713 16.2617 19.5859ZM18.2832 18.9121C18.6547 18.9121 18.957 19.2145 18.957 19.5859C18.957 19.9574 18.6547 20.2598 18.2832 20.2598C17.9117 20.2598 17.6094 19.9574 17.6094 19.5859C17.6094 19.2145 17.9117 18.9121 18.2832 18.9121Z" fill="white"/>
</svg>

<svg width="23" height="23" fill="none" xmlns="http://www.w3.org/2000/svg"><path d="M7.41 14.87h12.221c.3 0 .565-.2.648-.49l2.695-9.433a.674.674 0 00-.648-.86H5.856L5.375 1.92a.674.674 0 00-.658-.527H.674a.674.674 0 100 1.347h3.502L6.61 13.688a2.024 2.024 0 00-1.218 1.855c0 1.115.906 2.021 2.021 2.021h12.219a.674.674 0 000-1.347H7.412a.675.675 0 01-.002-1.348zm14.023-9.434l-2.31 8.085H7.952L6.156 5.436h15.277zM6.738 19.586c0 1.115.907 2.021 2.022 2.021a2.024 2.024 0 002.021-2.021 2.024 2.024 0 00-2.021-2.021 2.024 2.024 0 00-2.022 2.02zm2.022-.674a.675.675 0 11-.002 1.35.675.675 0 01.002-1.35zm7.502.674c0 1.115.907 2.021 2.021 2.021a2.024 2.024 0 002.022-2.021 2.024 2.024 0 00-2.022-2.021 2.024 2.024 0 00-2.021 2.02zm2.021-.674a.675.675 0 11-.002 1.35.675.675 0 01.002-1.35z" fill="#fff"/></svg>
